dist/flags/s/520.svg

<svg width="16" height="12" viewBox="0 0 16 12" fill="none" xmlns="http://www.w3.org/2000/svg">
<mask id="mask0" mask-type="alpha" maskUnits="userSpaceOnUse" x="0" y="0" width="16" height="12">
<rect width="16" height="12" fill="white"/>
</mask>
<g mask="url(#mask0)">
<path fill-rule="evenodd" clip-rule="evenodd" d="M0 0V12H16V0H0Z" fill="#2E42A5"/>
<mask id="mask1" mask-type="alpha" maskUnits="userSpaceOnUse" x="0" y="0" width="16" height="12">
<path fill-rule="evenodd" clip-rule="evenodd" d="M0 0V12H16V0H0Z" fill="white"/>
</mask>
<g mask="url(#mask1)">
<path fill-rule="evenodd" clip-rule="evenodd" d="M0 4V6H16V4H0Z" fill="#FECA00"/>
<path fill-rule="evenodd" clip-rule="evenodd" d="M4.41481 9.78981L3.64227 10.7925L3.60661 9.52721L2.39227 9.88428L3.10711 8.83971L1.91481 8.41481L3.10711 7.98992L2.39227 6.94535L3.60661 7.30242L3.64227 6.03717L4.41481 7.03981L5.18736 6.03717L5.22302 7.30242L6.43736 6.94535L5.72252 7.98992L6.91481 8.41481L5.72252 8.83971L6.43736 9.88428L5.22302 9.52721L5.18736 10.7925L4.41481 9.78981Z" fill="#F7FCFF"/>
</g>
</g>
</svg>

<svg width="16" height="12" fill="none" xmlns="http://www.w3.org/2000/svg">
  <mask id="a" maskUnits="userSpaceOnUse" x="0" y="0" width="16" height="12">
    <path fill="#fff" d="M0 0h16v12H0z"/>
  </mask>
  <g mask="url(#a)">
    <path fill-rule="evenodd" clip-rule="evenodd" d="M0 0v12h16V0H0z" fill="#2E42A5"/>
    <mask id="b" maskUnits="userSpaceOnUse" x="0" y="0" width="16" height="12">
      <path fill-rule="evenodd" clip-rule="evenodd" d="M0 0v12h16V0H0z" fill="#fff"/>
    </mask>
    <g mask="url(#b)" fill-rule="evenodd" clip-rule="evenodd">
      <path d="M0 4v2h16V4H0z" fill="#FECA00"/>
      <path d="M4.415 9.79l-.773 1.003-.035-1.266-1.215.357.715-1.044-1.192-.425 1.192-.425-.715-1.045 1.215.357.035-1.265.773 1.003.772-1.003.036 1.265 1.214-.357-.714 1.045 1.192.425-1.192.425.714 1.044-1.214-.357-.036 1.266-.772-1.003z" fill="#F7FCFF"/>
    </g>
  </g>
</svg>
